svg/vector_square.svg

<svg xmlns="http://www.w3.org/2000/svg" viewBox="0 0 24 24"><path d="M2 2h6v2h8V2h6v6h-2v8h2v6h-6v-2H8v2H2v-6h2V8H2zm14 6V6H8v2H6v8h2v2h8v-2h2V8zM4 4v2h2V4zm14 0v2h2V4zM4 18v2h2v-2zm14 0v2h2v-2z"/></svg>

<?xml version="1.0" encoding="UTF-8"?><!DOCTYPE svg PUBLIC "-//W3C//DTD SVG 1.1//EN" "http://www.w3.org/Graphics/SVG/1.1/DTD/svg11.dtd"><svg xmlns="http://www.w3.org/2000/svg" xmlns:xlink="http://www.w3.org/1999/xlink" version="1.1" id="mdi-vector-square" width="24" height="24" viewBox="0 0 24 24"><path d="M2,2H8V4H16V2H22V8H20V16H22V22H16V20H8V22H2V16H4V8H2V2M16,8V6H8V8H6V16H8V18H16V16H18V8H16M4,4V6H6V4H4M18,4V6H20V4H18M4,18V20H6V18H4M18,18V20H20V18H18Z" /></svg>
